src/images/atla-icon.svg

<svg fill="none" height="275" viewBox="0 0 374 275" width="374" xmlns="http://www.w3.org/2000/svg" xmlns:xlink="http://www.w3.org/1999/xlink"><linearGradient id="a" gradientUnits="userSpaceOnUse" x1="186.921" x2="186.921" y1="270.369" y2="7.69061"><stop offset="0" stop-color="#00ff18"/><stop offset=".735689" stop-color="#05aef9"/><stop offset="1" stop-color="#05aef9"/></linearGradient><path d="m26.632 29.3362c-44.3134 43.4826-32.86004 126.4758 41.4666 175.7298 30.068 19.924 59.1944 37.018 118.0464 69.03 58.854-32.012 86.335-49.346 116.434-69.224 75.586-49.917 90.668-134.1691 44.376-175.5385-46.292-41.3666-105.883-24.624-121.15-17.728-15.266 6.8947-40.825 25.116-40.825 25.116s-21.932-18.22-37.2-25.1133c-7.84-3.54268-27.417-10.704024-50.8574-10.702691-22.1986.001334-47.864 6.425331-70.2906 28.430691z" fill="url(#a)"/></svg>

<svg width="374" height="275" viewBox="0 0 374 275" fill="none" xmlns="http://www.w3.org/2000/svg">
<path d="M26.632 29.3362C-17.6814 72.8188 -6.22804 155.812 68.0986 205.066C98.1666 224.99 127.293 242.084 186.145 274.096C244.999 242.084 272.48 224.75 302.579 204.872C378.165 154.955 393.247 70.7029 346.955 29.3335C300.663 -12.0331 241.072 4.7095 225.805 11.6055C210.539 18.5002 184.98 36.7215 184.98 36.7215C184.98 36.7215 163.048 18.5015 147.78 11.6082C139.94 8.06552 120.363 0.904176 96.9226 0.905509C74.724 0.906843 49.0586 7.33084 26.632 29.3362Z" fill="url(#paint0_linear)"/>
<defs>
<linearGradient id="paint0_linear" x1="186.921" y1="270.369" x2="186.921" y2="7.69061" gradientUnits="userSpaceOnUse">
<stop stop-color="#00FF18"/>
<stop offset="0.735689" stop-color="#05AEF9"/>
<stop offset="1" stop-color="#05AEF9"/>
</linearGradient>
</defs>
</svg>
